app/[lang]/(home)/(new-home)/assets/sealos-appicons/devbox.svg

<svg width="16" height="16" viewBox="0 0 16 16" fill="none" xmlns="http://www.w3.org/2000/svg">
<rect width="16" height="16" fill="url(#paint0_linear_94_604)"/>
<path d="M6.19538 7.86896C6.82054 7.50803 7.13312 7.32756 7.49357 7.25994C7.81062 7.20046 8.15215 7.20046 8.46921 7.25994C8.82966 7.32756 9.14224 7.50803 9.7674 7.86896L10.7242 8.42139C11.8704 9.08311 12.4434 9.41397 12.6581 9.79549C12.847 10.1311 12.847 10.4926 12.6581 10.8282C12.4434 11.2097 11.8704 11.5406 10.7242 12.2023L9.50672 12.9052C8.98576 13.206 8.72527 13.3564 8.4249 13.4127C8.16069 13.4623 7.87608 13.4623 7.61187 13.4127C7.31149 13.3564 7.05101 13.206 6.53004 12.9052L4.38254 11.6653C3.54899 11.1841 3.13222 10.9435 2.97606 10.666C2.83871 10.4219 2.83871 10.159 2.97606 9.91495C3.13222 9.63748 3.54899 9.39685 4.38254 8.9156L6.19538 7.86896Z" fill="url(#paint1_linear_94_604)"/>
<path d="M6.99726 3.27021C7.62242 2.90927 7.935 2.7288 8.29545 2.66119C8.61251 2.60171 8.95404 2.60171 9.27109 2.66119C9.63154 2.7288 9.94412 2.90927 10.5693 3.27021L12.0074 4.10048C12.4402 4.35036 12.7232 4.51375 12.8952 4.65969C13.0181 4.74424 13.1232 4.85828 13.207 4.99978C13.43 5.37649 13.43 6.03821 13.43 7.36164V8.58005C13.43 9.30193 13.43 9.66286 13.3084 10.0088C13.2013 10.3131 13.0306 10.6089 12.8205 10.8538C12.5818 11.1321 12.2692 11.3126 11.644 11.6735L10.2669 12.4686C9.12078 13.1303 8.54771 13.4612 8.10995 13.4563C7.72488 13.4521 7.41181 13.2714 7.21561 12.94C6.99256 12.5633 6.99256 11.9016 6.99256 10.5781L6.99255 8.98716C6.99255 8.62193 6.73614 8.17781 6.41984 7.9952L5.26383 7.32777V7.3274L4.99827 7.17407C4.16472 6.69282 3.74794 6.4522 3.59179 6.17472C3.45443 5.93065 3.45443 5.66774 3.59179 5.42367C3.74794 5.1462 4.16472 4.90558 4.99827 4.42433L6.99726 3.27021Z" fill="#EBECF7"/>
<path d="M10.7111 6.71916C10.7405 6.55007 10.8711 6.37884 11.0028 6.33671C11.1346 6.29457 11.2176 6.39749 11.1882 6.56658L10.3724 11.2611C10.343 11.4302 10.2124 11.6015 10.0806 11.6436C9.94889 11.6857 9.86591 11.5828 9.89529 11.4137L10.7111 6.71916Z" fill="url(#paint2_linear_94_604)"/>
<path d="M11.4996 7.17332C11.5951 7.008 11.7498 6.91866 11.8453 6.97376L12.767 7.50592C12.8406 7.54843 12.8575 7.66451 12.8175 7.79125C12.8056 7.8288 12.7888 7.86728 12.767 7.90506L11.8453 9.50152C11.7498 9.66684 11.5951 9.75618 11.4996 9.70108C11.4042 9.64597 11.4042 9.46728 11.4996 9.30196L12.2485 8.00481L11.4996 7.57244C11.4042 7.51733 11.4042 7.33864 11.4996 7.17332Z" fill="url(#paint3_linear_94_604)"/>
<path d="M9.30913 8.43792C9.40458 8.2726 9.55933 8.18326 9.65478 8.23836C9.75022 8.29347 9.75022 8.47216 9.65478 8.63748L8.90588 9.9346L9.65479 10.367C9.75023 10.4221 9.75023 10.6008 9.65479 10.7661C9.55934 10.9314 9.40459 11.0208 9.30914 10.9657L8.38759 10.4336C8.29214 10.3785 8.29197 10.1997 8.38742 10.0344L9.30913 8.43792Z" fill="url(#paint4_linear_94_604)"/>
<defs>
<linearGradient id="paint0_linear_94_604" x1="16" y1="0" x2="1.90735e-06" y2="16" gradientUnits="userSpaceOnUse">
<stop stop-color="#636363"/>
<stop offset="1"/>
</linearGradient>
<linearGradient id="paint1_linear_94_604" x1="10.1661" y1="12.5086" x2="4.06143" y2="12.5803" gradientUnits="userSpaceOnUse">
<stop stop-color="#7A9BFF"/>
<stop offset="1" stop-color="#7A9BFF" stop-opacity="0.2"/>
</linearGradient>
<linearGradient id="paint2_linear_94_604" x1="8.11981" y1="8.38482" x2="9.93242" y2="11.653" gradientUnits="userSpaceOnUse">
<stop/>
<stop offset="1" stop-color="#666666"/>
</linearGradient>
<linearGradient id="paint3_linear_94_604" x1="8.11981" y1="8.38482" x2="9.93242" y2="11.653" gradientUnits="userSpaceOnUse">
<stop/>
<stop offset="1" stop-color="#666666"/>
</linearGradient>
<linearGradient id="paint4_linear_94_604" x1="8.11981" y1="8.38482" x2="9.93242" y2="11.653" gradientUnits="userSpaceOnUse">
<stop/>
<stop offset="1" stop-color="#666666"/>
</linearGradient>
</defs>
</svg>

<svg xmlns="http://www.w3.org/2000/svg" fill="none" viewBox="0 0 16 16">
  <path fill="url(#a)" d="M0 0h16v16H0z" />
  <path
    fill="url(#b)"
    d="M6.2 7.87c.62-.36.93-.54 1.3-.61.31-.06.65-.06.97 0 .36.07.67.25 1.3.6l.95.56c1.15.66 1.72 1 1.94 1.38.19.33.19.7 0 1.03-.22.38-.79.71-1.94 1.37l-1.21.7c-.52.3-.78.46-1.09.51-.26.05-.54.05-.8 0-.3-.05-.57-.2-1.09-.5l-2.15-1.24c-.83-.49-1.25-.73-1.4-1a.74.74 0 0 1 0-.76c.15-.27.57-.51 1.4-1L6.2 7.88Z"
  />
  <path
    fill="#EBECF7"
    d="M7 3.27c.62-.36.93-.54 1.3-.6.31-.07.65-.07.97 0 .36.06.67.24 1.3.6L12 4.1c.43.25.71.41.89.56.12.08.22.2.3.34.23.38.23 1.04.23 2.36v1.22c0 .72 0 1.08-.12 1.43-.1.3-.28.6-.49.84-.24.28-.55.46-1.18.82l-1.37.8c-1.15.66-1.72 1-2.16.99-.39 0-.7-.19-.9-.52C7 12.56 7 11.9 7 10.58v-1.6c0-.36-.25-.8-.57-.98l-1.16-.67L5 7.17c-.84-.48-1.25-.72-1.4-1a.74.74 0 0 1 0-.75c.15-.27.56-.51 1.4-1l2-1.15Z"
  />
  <path
    fill="url(#c)"
    d="M10.71 6.72c.03-.17.16-.34.3-.38.12-.05.2.06.18.23l-.82 4.7c-.03.16-.16.33-.29.37-.13.05-.21-.06-.18-.23l.81-4.7Z"
  />
  <path
    fill="url(#d)"
    d="M11.5 7.17c.1-.16.25-.25.35-.2l.92.54c.07.04.09.15.05.28a.58.58 0 0 1-.05.12l-.92 1.6c-.1.16-.25.25-.35.2-.1-.06-.1-.24 0-.4l.75-1.3-.75-.44c-.1-.05-.1-.23 0-.4Z"
  />
  <path
    fill="url(#e)"
    d="M9.3 8.44c.1-.17.26-.26.35-.2.1.05.1.23 0 .4l-.74 1.3.74.43c.1.05.1.23 0 .4-.1.16-.25.25-.34.2l-.92-.54c-.1-.05-.1-.23 0-.4l.92-1.6Z"
  />
  <defs>
    <linearGradient
      id="a"
      x1="16"
      x2="0"
      y1="0"
      y2="16"
      gradientUnits="userSpaceOnUse"
    >
      <stop stop-color="#636363" />
      <stop offset="1" />
    </linearGradient>
    <linearGradient
      id="b"
      x1="10.17"
      x2="4.06"
      y1="12.51"
      y2="12.58"
      gradientUnits="userSpaceOnUse"
    >
      <stop stop-color="#7A9BFF" />
      <stop offset="1" stop-color="#7A9BFF" stop-opacity=".2" />
    </linearGradient>
    <linearGradient
      id="c"
      x1="8.12"
      x2="9.93"
      y1="8.38"
      y2="11.65"
      gradientUnits="userSpaceOnUse"
    >
      <stop />
      <stop offset="1" stop-color="#666" />
    </linearGradient>
    <linearGradient
      id="d"
      x1="8.12"
      x2="9.93"
      y1="8.38"
      y2="11.65"
      gradientUnits="userSpaceOnUse"
    >
      <stop />
      <stop offset="1" stop-color="#666" />
    </linearGradient>
    <linearGradient
      id="e"
      x1="8.12"
      x2="9.93"
      y1="8.38"
      y2="11.65"
      gradientUnits="userSpaceOnUse"
    >
      <stop />
      <stop offset="1" stop-color="#666" />
    </linearGradient>
  </defs>
</svg>
